X:969
T:Stone of Destiny
R:reel
C:Maurice Lennon
Z:id:hn-reel-969
M:C|
L:1/8
K:G
BddB G2Bd | d2Bd edBA | BddB GABd | gedB ~A3d |
edBA BGGA | BGAG EGDE | DG~G2 DGBe |1 dBAB G3A :|2 dBAB G3d ||
|: edBA BGGA | BGAG EGDd | edBA BGGA | BddB ~A3d |
edBA BGGA | BGAG EGDE | DG~G2 DGBe |1 dBAB G3d :|2 dBAB G3A ||
P:variations
|: BddB G2Bd | d2Bd edBA | BddB G2Bd | gedB BAAd |
edBA BGGA | BGAG EAGE | DG~G2 DGBe |1 dBAB ~G3A :|2 dBAB ~G3d ||
|: edBA BGGA | BGAG EGD2 | edBA BGGA | BddB ~A3d |
edBA BGGA | BGAG EAGE | DG~G2 DGBe |1 dBAB ~G3d :|2 dBAB ~G3A ||

